X: 1
T: Patsy Gearys
M: 6/8
L: 1/8
R: jig
K: Dmaj
|:AB2 BcA |BGE B2D | GAG GBd | ecA ABc |
ABB BcA |BGE G2A | Bcd ecA |GED D(3EFG||
|:A3 ABA | GED D3 | E^DE EcA | GED DEG |
A3 ABA | GED D3 | Bcd ecA | GED D3 ||
